app/assets/hero-4.svg

<svg height="409" viewBox="0 0 275 409" width="275" xmlns="http://www.w3.org/2000/svg"><g fill="none" fill-rule="evenodd" transform="matrix(-.93969262 -.34202014 .34202014 -.93969262 176.812397 463.292482)"><g transform="translate(69.486009 .269915)"><g fill="#b28b67" transform="translate(53.117647 29.211538)"><path d="m0 68.7884615 9.56480582-44.2884615h6.89838338l6.3015167 44.2884615z"/><path d="m33.9196976 46.421335c-7.103799 1.819089-34.34158219-12.0969025-32.91731417-32.2627342 1.42426803-20.16583173 29.68114927-15.72960569 35.17769777-5.55162555 5.4965484 10.17798015 4.8434155 35.99527085-2.2603836 37.81435975z"/></g><path d="m91.4468632 42.3884232c-.2254954-1.3192777-.7765922-2.7843212-1.2212622-4.0324818-.5732935-1.6090435-1.4408777-3.0597994-2.3956319-4.4270771-1.7974957-2.5741807-3.9538144-4.8987293-6.3345995-6.8280404-4.3487988-3.524067-9.8846093-5.5567627-15.3283988-4.8966423-2.748575.3332709-5.4167418 1.3748228-7.6877192 3.1084416-2.0518028 1.5663412-4.0254025 3.8721072-6.6822505 4.0377794-2.8908693.1801204-5.5408084-2.3547292-7.8592662-3.9202677-2.6140715-1.7649231-5.3949861-3.05097-8.4501996-3.5508764-5.1181882-.8371907-9.9263568.8806957-13.453729 5.0523614-3.7536026 4.4392778-6.4821858 10.9494586-4.0171706 16.8314656.4581938 1.0934047 1.0476571 2.0151974 1.8936326 2.779184.7758572.7005753 1.9608108 1.4459399 2.2753873 2.5653513.3341272 1.1898863-.6639915 2.7249232-1.0510381 3.7985821-.5544778 1.5382475-1.0097316 3.1529098-.8478865 4.8248831.26592 2.7457928 2.0028524 5.3670102 3.8369507 7.1717461 1.8664379 1.8365218 4.163581 2.8896322 6.6171302 3.3750904 1.6382965.3241204 3.3126076.5029566 4.9776578.381271.8265717-.0603613 1.5559774-.2884817 2.3568244-.4698864.7787972-.1764281 1.2140593.0290569 1.8748168.4533512 3.0694723 1.9713714 6.3698791 2.7340737 9.914156 2.4409366 2.9912692-.2475452 6.4389683-.9677057 8.8791407-3.0037727 2.7099144-2.2612978 2.655966-5.379532 2.0182872-8.7111174.6756044.3326288 2.5446883.5385953 1.4277949-.7872643-.442465-.5251103-1.2784446-.7387826-1.8461521-1.0476522-.6610516-.3595986-1.332246-.8243478-1.8455642-1.4109432-2.0726766-2.3685352.0207268-7.1887628 2.6258313-7.9830906 3.8704663-1.1800937 4.7370215 4.2577126 7.5000023 5.6643213 1.5886111.808776 3.2504273-.2966689 4.4406729-1.4253913 1.594344-1.5120804 2.6809557-3.5152376 3.6190991-5.5537126.7727703-1.6787158 1.4918861-3.3810303 2.2795032-5.0513982.3677899-.7800402 1.6410895-2.9851507 1.0016467-3.8671306 2.7722417-.5491907 5.8599418.5952642 8.2474889 2.0961071.9867998.6204682 1.7391373 1.3045084 2.2655384 2.3998395.1127477.2347024.3582349.932388.6664904.9609633.5738816.0532977.359411-.6434248.3028166-.9749298" fill="#191847"/></g><g transform="translate(.273968 174.325707)"><path d="m121.173333 0 45.517286 120.306617 31.904266 88.672462h18.191782l-43.855576-208.979079z" fill="#1f28cf"/><path d="m109.923741 0c-.494775 41.2796932-.137073 96.8560999-1.289887 99.4292659-.768544 1.7154441-24.6731614 21.2606961-71.713854 58.6357551l9.3767147 15.926611c55.8481273-35.974853 85.1998293-56.358784 88.0551063-61.151792 4.282915-7.189511 25.799944-73.3483381 36.994846-112.83984z" fill="#2b44ff"/><g fill="#191847"><path d="m0 38 .95081967-19.95h19.96721313c9.4678851 6.65 21.8285408 12.0333333 37.0819672 16.15v3.8h-36.1311475l-12.36065578-1.9v1.9z" transform="matrix(.64278761 .76604444 -.76604444 .64278761 49.414781 144.444923)"/><path d="m0 38 .95081967-19.95h19.96721313c9.4678851 6.65 21.8285408 12.0333333 37.0819672 16.15v3.8h-36.1311475l-12.36065578-1.9v1.9z" transform="translate(196.906667 188.175732)"/></g></g><path d="m68.0185541 84.240175 28.9541954 23.721406c8.0516985 2.63536 14.7314505 5.738962 20.0392535 9.310806 1.232597 1.248921 2.671852 3.722706-2.674642 3.027556s-11.001416-1.185585-11.838029.608854c-.836612 1.794438 2.297177 4.157429.67049 6.55246-1.084457 1.596687-5.5839201-2.785908-13.4983891-13.147787l-29.1715686-13.946564z" fill="#b28b67" transform="matrix(.99862953951 -.05233594929 .05233594929 .99862953951 132.21879770402 77.16215412186)"/><path d="m4.70104987 8.71350314 10.03585863-4.32645356c17.0878351 33.84092052 40.9652265 65.94122742 78.4070325 91.54390712l-7.3332382 15.6790483c-32.2867594-15.4228251-62.5810938-26.9474359-76.75204698-53.0888379-4.75613822-8.7737302-3.72651498-38.8745693-4.35760595-49.80766396z" fill="#69a1ac" transform="matrix(.99984769628 .01745240727 -.01745240727 .99984769628 135.4134854697 74.43239542748)"/><path d="m66.9817022 98.7867742c-2.0860116 1.0821644-5.9998591-6.4816335-3.9138476-7.5637979 5.9071289-3.0644529 12.9719835-3.1334473 20.9937604-.4271437 2.2263866.7511152 3.4231097 3.1671705 2.672956 5.3964105-.7501537 2.2292401-3.1631164 3.4274971-5.389503 2.6763819-5.9922552-2.0216048-10.7131093-1.9755016-14.3633658-.0818508z" fill="#69a1ac" transform="matrix(-.99756405 .06975647 -.06975647 -.99756405 292.64484347559 255.88378523288)"/><g transform="matrix(.99939083 .0348995 -.0348995 .99939083 19.37359 62.938073)"><path d="m54.5866663 84.9257883c-16.1274338 35.7303547-25.4840176 55.2381547-28.0697512 58.5233987-1.8961459 2.409104-13.4362873 8.498554-21.23158431 11.72225-3.12892651 1.293948-2.50824266 3.933647-1.61219589 4.790285 7.2882439 6.9677 14.1132137 2.01395 22.0925006.176187 8.7419942-2.013428 5.8478247 8.307552 12.7539901 6.823636-1.0133564-4.757275-3.8237339-13.806507-.556607-18.660663 1.4520564-2.157403 12.5041211-22.083542 33.1561941-59.7784165z" fill="#b28b67" transform="matrix(.99756405 -.06975647 .06975647 .99756405 -8.700288 2.890238)"/><g fill="#89c5cc"><path d="m99.6905361 5.91821048c-36.2609182 32.16340392-57.039608 78.21843542-62.3360696 138.16509452l18.4957839 2.079393c9.7185333-51.1705903 26.8663731-81.2568973 51.4435196-90.2589207l-2.574628-50.87247757z" transform="matrix(.99026807 .1391731 -.1391731 .99026807 11.224922 -9.329867)"/><path d="m30.8549831 131.214171c-2.0860116 1.082164-5.9998592-6.481634-3.9138476-7.563798 5.9071288-3.064453 12.9719835-3.133447 20.9937603-.427144 2.2263866.751116 3.4231098 3.167171 2.672956 5.396411-.7501537 2.22924-3.1631164 3.427497-5.389503 2.676382-5.9922552-2.021605-10.7131093-1.975502-14.3633657-.081851z"/></g></g><g transform="translate(63.804035 77.147272)"><path d="m40.6484375 107.818315c29.7190426 3.268985 53.1111892 3.268985 70.1764395 0 2.11427-.405005 2.021422-9.5308766 1.040932-12.023238-15.2687833-38.8125543-25.3127112-67.2251639-25.3127112-94.18348979-2.8016296 1.46530691-7.7047455 1.68490146-14.7093478.65878367-18.8247625 27.78142162-27.4778354 59.65742432-31.1953125 105.54794412z" fill="#191847"/><path d="m.8345341 213.914439c38.9932875-15.596099 71.4892992 3.925035 99.5487609-2.349167 15.18082-78.148067-28.539545-169.6524856-25.3742373-211.565272h-9.2799834c-5.2126081 12.498623-19.0911233 31.2938077-25.9012527 50.1735065-5.6103339 15.5535101 1.6594748 31.4913315-.9832888 47.870723-5.8711286 36.3882385-36.34478726 79.7516005-38.0099987 115.8702095z" fill="#89c5cc"/><g fill="#5c63ab"><ellipse cx="79.40625" cy="83.294118" rx="3.78125" ry="3.786096"/><ellipse cx="84.132813" cy="105.064171" rx="3.78125" ry="3.786096"/><ellipse cx="85.078125" cy="126.834225" rx="3.78125" ry="3.786096"/></g><path d="m68.1624751.94652406-4.8770139 15.01702564 9.8212231 11.2575771-8.8759106 8.8466521 21.4733855 36.814574-26.2595188-36.741024 8.7178347-8.9202021-8.7178347-9.9485219z" fill="#000" fill-opacity=".1"/><path d="m38.2839131 102.224818c2.3497598.000515 4.2544875 1.905243 4.2550019 4.255003l.0006238 2.849709c.0005141 2.34843-1.9028473 4.252624-4.2512766 4.253139-.000621 0-.0012419 0-.0018628 0-2.3497598-.000515-4.2544875-1.905244-4.2550019-4.255004l-.0006238-2.849709c-.0005141-2.348429 1.9028473-4.252624 4.2512766-4.253138z" fill="#89c5cc" transform="matrix(.98480775 .17364818 -.17364818 .98480775 19.318926 -5.008847)"/></g></g></svg>

<?xml version="1.0" encoding="UTF-8"?>
<svg width="275px" height="409px" viewBox="0 0 275 409" version="1.1" xmlns="http://www.w3.org/2000/svg" xmlns:xlink="http://www.w3.org/1999/xlink">
    <!-- Generator: Sketch 52.4 (67378) - http://www.bohemiancoding.com/sketch -->
    <title>hero-4</title>
    <desc>Created with Sketch.</desc>
    <g id="Sited" stroke="none" stroke-width="1" fill="none" fill-rule="evenodd">
        <g id="hero-4" transform="translate(111.481237, 226.146241) rotate(-160.000000) translate(-111.481237, -226.146241) translate(-31.018763, 25.646241)">
            <g id="Head/Front/Wavy" transform="translate(69.486009, 0.269915)">
                <g id="Head" stroke-width="1" transform="translate(53.117647, 29.211538)" fill="#B28B67">
                    <polygon id="Neck" points="8.99725783e-17 68.7884615 9.56480582 24.5 16.4631892 24.5 22.7647059 68.7884615"></polygon>
                    <path d="M33.9196976,46.421335 C26.8158986,48.240424 -0.421884591,34.3244325 1.00238343,14.1586008 C2.42665146,-6.00723093 30.6835327,-1.57100489 36.1800812,8.60697525 C41.6766296,18.7849554 41.0234967,44.6022461 33.9196976,46.421335 Z"></path>
                </g>
                <path d="M91.4468632,42.3884232 C91.2213678,41.0691455 90.670271,39.604102 90.225601,38.3559414 C89.6523075,36.7468979 88.7847233,35.296142 87.8299691,33.9288643 C86.0324734,31.3546836 83.8761547,29.030135 81.4953696,27.1008239 C77.1465708,23.5767569 71.6107603,21.5440612 66.1669708,22.2041816 C63.4183958,22.5374525 60.750229,23.5790044 58.4792516,25.3126232 C56.4274488,26.8789644 54.4538491,29.1847304 51.7970011,29.3504026 C48.9061318,29.530523 46.2561927,26.9956734 43.9377349,25.4301349 C41.3236634,23.6652118 38.5427488,22.3791649 35.4875353,21.8792585 C30.3693471,21.0420678 25.5611785,22.7599542 22.0338063,26.9316199 C18.2802037,31.3708977 15.5516205,37.8810785 18.0166357,43.7630855 C18.4748295,44.8564902 19.0642928,45.7782829 19.9102683,46.5422695 C20.6861255,47.2428448 21.8710791,47.9882094 22.1856556,49.1076208 C22.5197828,50.2975071 21.5216641,51.832544 21.1346175,52.9062029 C20.5801397,54.4444504 20.1248859,56.0591127 20.286731,57.731086 C20.552651,60.4768788 22.2895834,63.0980962 24.1236817,64.9028321 C25.9901196,66.7393539 28.2872627,67.7924643 30.7408119,68.2779225 C32.3791084,68.6020429 34.0534195,68.7808791 35.7184697,68.6591935 C36.5450414,68.5988322 37.2744471,68.3707118 38.0752941,68.1893071 C38.8540913,68.012879 39.2893534,68.218364 39.9501109,68.6426583 C43.0195832,70.6140297 46.31999,71.376732 49.8642669,71.0835949 C52.8555361,70.8360497 56.3032352,70.1158892 58.7434076,68.0798222 C61.453322,65.8185244 61.3993736,62.7002902 60.7616948,59.3687048 C61.4372992,59.7013336 63.3063831,59.9073001 62.1894897,58.5814405 C61.7470247,58.0563302 60.9110451,57.8426579 60.3433376,57.5337883 C59.682286,57.1741897 59.0110916,56.7094405 58.4977734,56.1228451 C56.4250968,53.7543099 58.5185002,48.9340823 61.1236047,48.1397545 C64.994071,46.9596608 65.8606262,52.3974671 68.623607,53.8040758 C70.2122181,54.6128518 71.8740343,53.5074069 73.0642799,52.3786845 C74.6586239,50.8666041 75.7452356,48.8634469 76.683379,46.8249719 C77.4561493,45.1462561 78.1752651,43.4439416 78.9628822,41.7735737 C79.3306721,40.9935335 80.6039717,38.788423 79.9645289,37.9064431 C82.7367706,37.3572524 85.8244707,38.5017073 88.2120178,40.0025502 C89.1988176,40.6230184 89.9511551,41.3070586 90.4775562,42.4023897 C90.5903039,42.6370921 90.8357911,43.3347777 91.1440466,43.363353 C91.7179282,43.4166507 91.5034576,42.7199282 91.4468632,42.3884232" id="hair" fill="#191847"></path>
            </g>
            <g id="Standing/Skinny-Jeans-Walk" transform="translate(0.273968, 174.325707)">
                <polygon id="Leg" fill="#1F28CF" points="121.173333 0 166.690619 120.306617 198.594885 208.979079 216.786667 208.979079 172.931091 9.28053543e-14"></polygon>
                <path d="M109.923741,0 C109.428966,41.2796932 109.786668,96.8560999 108.633854,99.4292659 C107.86531,101.14471 83.9606926,120.689962 36.92,158.065021 L46.2967147,173.991632 C102.144842,138.016779 131.496544,117.632848 134.351821,112.83984 C138.634736,105.650329 160.151765,39.4915019 171.346667,0 L109.923741,0 Z" id="Leg" fill="#2B44FF"></path>
                <g id="Accessories/Shoe/Flat-Pointy" transform="translate(53.486667, 178.719665) rotate(50.000000) translate(-53.486667, -178.719665) translate(24.613333, 159.807531)" fill="#191847">
                    <path d="M0,38 L0.950819672,18.05 L20.9180328,18.05 C30.3859179,24.7 42.7465736,30.0833333 58,34.2 L58,38 L21.8688525,38 L9.50819672,36.1 L9.50819672,38 L0,38 Z" id="Shoe"></path>
                </g>
                <g id="Accessories/Shoe/Flat-Pointy" transform="translate(196.906667, 188.175732)" fill="#191847">
                    <path d="M0,38 L0.950819672,18.05 L20.9180328,18.05 C30.3859179,24.7 42.7465736,30.0833333 58,34.2 L58,38 L21.8688525,38 L9.50819672,36.1 L9.50819672,38 L0,38 Z" id="Shoe"></path>
                </g>
            </g>
            <g id="Body/Trench-Coat" transform="translate(19.374347, 77.147272)">
                <g id="Right-Arm" transform="translate(174.992269, 61.736572) rotate(-4.000000) translate(-174.992269, -61.736572) translate(115.437581, -2.627065)">
                    <path d="M68.0185541,84.240175 L96.9727495,107.961581 C105.024448,110.596941 111.7042,113.700543 117.012003,117.272387 C118.2446,118.521308 119.683855,120.995093 114.337361,120.299943 C108.990867,119.604793 103.335945,119.114358 102.499332,120.908797 C101.66272,122.703235 104.796509,125.066226 103.169822,127.461257 C102.085365,129.057944 97.5859019,124.675349 89.6714329,114.31347 L60.4998643,100.366906 L68.0185541,84.240175 Z" id="Arm" fill="#B28B67" transform="translate(89.332118, 106.010606) rotate(1.000000) translate(-89.332118, -106.010606) "></path>
                    <path d="M4.70104987,8.71350314 L14.7369085,4.38704958 C31.8247436,38.2279701 55.702135,70.328277 93.143941,95.9309567 L85.8107028,111.610005 C53.5239434,96.1871799 23.229609,84.6625691 9.05865582,58.5211671 C4.3025176,49.7474369 5.33214084,19.6465978 4.70104987,8.71350314 Z" id="Clothes-Back" fill="#69A1AC" transform="translate(48.922495, 57.998527) rotate(5.000000) translate(-48.922495, -57.998527) "></path>
                    <path d="M66.9817022,98.7867742 C64.8956906,99.8689386 60.9818431,92.3051407 63.0678546,91.2229763 C68.9749835,88.1585234 76.0398381,88.089529 84.061615,90.7958326 C86.2880016,91.5469478 87.4847247,93.9630031 86.734571,96.1922431 C85.9844173,98.4214832 83.5714546,99.6197402 81.345068,98.868625 C75.3528128,96.8470202 70.6319587,96.8931234 66.9817022,98.7867742 Z" id="Sinch" fill="#69A1AC" transform="translate(74.716006, 93.967057) scale(-1, -1) translate(-74.716006, -93.967057) "></path>
                </g>
                <g id="Left-Arm" transform="translate(55.616442, 72.498537) rotate(2.000000) translate(-55.616442, -72.498537) translate(-2.992933, -12.215367)">
                    <path d="M54.5866663,84.9257883 C38.4592325,120.656143 29.1026487,140.163943 26.5169151,143.449187 C24.6207692,145.858291 13.0806278,151.947741 5.28533079,155.171437 C2.15640428,156.465385 2.77708813,159.105084 3.6731349,159.961722 C10.9613788,166.929422 17.7863486,161.975672 25.7656355,160.137909 C34.5076297,158.124481 31.6134602,168.445461 38.5196256,166.961545 C37.5062692,162.20427 34.6958917,153.155038 37.9630186,148.300882 C39.415075,146.143479 50.4671397,126.21734 71.1192127,88.5224655 L54.5866663,84.9257883 Z" id="Arm" fill="#B28B67" transform="translate(37.032649, 126.016946) rotate(-4.000000) translate(-37.032649, -126.016946) "></path>
                    <path d="M99.6905361,5.91821048 C63.4296179,38.0816144 42.6509281,84.1366459 37.3544665,144.083305 L55.8502504,146.162698 C65.5687837,94.9921077 82.7166235,64.9058007 107.29377,55.9037773 L104.719142,5.03129973 L99.6905361,5.91821048 Z" id="Clothes-Front" fill="#89C5CC" transform="translate(72.324118, 75.596999) rotate(8.000000) translate(-72.324118, -75.596999) "></path>
                    <path d="M30.8549831,131.214171 C28.7689715,132.296335 24.8551239,124.732537 26.9411355,123.650373 C32.8482643,120.58592 39.913119,120.516926 47.9348958,123.223229 C50.1612824,123.974345 51.3580056,126.3904 50.6078518,128.61964 C49.8576981,130.84888 47.4447354,132.047137 45.2183488,131.296022 C39.2260936,129.274417 34.5052395,129.32052 30.8549831,131.214171 Z" id="Sinch" fill="#89C5CC"></path>
                </g>
                <g id="Body" transform="translate(44.429688, 0.000000)">
                    <path d="M40.6484375,107.818315 C70.3674801,111.0873 93.7596267,111.0873 110.824877,107.818315 C112.939147,107.41331 112.846299,98.2874384 111.865809,95.795077 C96.5970257,56.9825227 86.5530978,28.5699131 86.5530978,1.61158721 C83.7514682,3.07689412 78.8483523,3.29648867 71.84375,2.27037088 C53.0189875,30.0517925 44.3659146,61.9277952 40.6484375,107.818315 Z" id="Clothes-Body" fill="#191847"></path>
                    <path d="M0.834534102,213.914439 C39.8278216,198.31834 72.3238333,217.839474 100.383295,211.565272 C115.564115,133.417205 71.84375,41.9127864 75.0090577,4.26325641e-14 L65.7290743,4.850468e-14 C60.5164662,12.498623 46.637951,31.2938077 39.8278216,50.1735065 C34.2174877,65.7270166 41.4872964,81.664838 38.8445328,98.0442295 C32.9734042,134.432468 2.49974554,177.79583 0.834534102,213.914439 Z" id="Clothes-Body" fill="#89C5CC"></path>
                    <ellipse id="Button" fill="#5C63AB" cx="79.40625" cy="83.2941176" rx="3.78125" ry="3.78609626"></ellipse>
                    <ellipse id="Button" fill="#5C63AB" cx="84.1328125" cy="105.064171" rx="3.78125" ry="3.78609626"></ellipse>
                    <ellipse id="Button" fill="#5C63AB" cx="85.078125" cy="126.834225" rx="3.78125" ry="3.78609626"></ellipse>
                    <polygon id="Shade-Lapel" fill-opacity="0.1" fill="#000000" points="68.1624751 0.946524064 63.2854612 15.9635497 73.1066843 27.2211268 64.2307737 36.0677789 85.7041592 72.8823529 59.4446404 36.1413289 68.1624751 27.2211268 59.4446404 17.2726049"></polygon>
                    <path d="M38.2839131,102.224818 L38.2839131,102.224818 C40.6336729,102.225333 42.5384006,104.130061 42.538915,106.479821 L42.5395388,109.32953 C42.5400529,111.67796 40.6366915,113.582154 38.2882622,113.582669 C38.2876412,113.582669 38.2870203,113.582669 38.2863994,113.582669 L38.2863994,113.582669 C35.9366396,113.582154 34.0319119,111.677425 34.0313975,109.327665 L34.0307737,106.477956 C34.0302596,104.129527 35.933621,102.225332 38.2820503,102.224818 C38.2826713,102.224818 38.2832922,102.224818 38.2839131,102.224818 Z" id="Belt" fill="#89C5CC" transform="translate(38.285156, 107.903743) rotate(10.000000) translate(-38.285156, -107.903743) "></path>
                </g>
            </g>
        </g>
    </g>
</svg>
